X:1
T:'Round Midnight
T:'Round Midnight
T:Thelonious Monk
T:All Rights Reserved
T:'Round Midnight
T:2
C:Thelonious Monk
Z:All Rights Reserved
L:1/8
Q:1/4=120
M:4/4
K:Gb
V:1 treble nm="MusicXML Part"
%%MIDI program 0
V:1
"Ebm" z2 B,/E/F/B/ G3"Cm7b5" B, | E3"Fm7b5" =D/E/ B"Bb7"A z2 |"Ebm7" z2 E/G/B/d/"Ab7" =c3 E | %3
w: It be- gins to tell 'round|mid- night 'round mid- night.|I do pret- ty well 'til|
w: Mem'- ries al- ways start 'round|mid- night 'round mid- night.|Have- n't got the heart to|
"Bm7" =A^F/=D/"E7" ^G2"Bbm7" _A=F/_D/"Eb7" =G2 |"Abm7" z2 A/c/e/g/"Db7" f3 c | %5
w: af- * * ter sun- * * down.|Sup- per time I'm feel- in'|
w: stand _ _ those mem- * * 'ries.|When my heart is still with|
 B2"Ebm7" (3E=D_D C"Ab7" A2 E/F/ |1 (3^F"B7"FF (3F=F^D F3 D |"Bb7" =DB, z2 z4 :|2 %8
w: sad. _ _ _ _ _ but it|real- * ly _ gets _ bad 'round|mid- night.|
w: you. _ _ _ _ _ and _|_ _ _ _ _ _ _ _||
"B7" ^F2 =F^D"Bb7" F2 EE ||"Ebm7" E6 EF || G2"Cm7b5" FE F3"F7b9" E |"Bb7" =DB z2 z2 EF | %12
w: |* When some|quar- rel we had needs|men- ding, Does it|
w: old mid- night knows _ it|too. _ _|_ _ _ _ _||
 G2"Cm7b5" FE"F7b9" F3 E |"Bb7" =DB, z2 z2 B2 |"Abm7" c2 c"Db7"c"Gbmaj7" B2 BB | %15
w: mean that our love is|end- ing? Oh,|dar- lin' I need you but|
w: |||
"B7" AA G2"Bb7" F3 B |"Eb7" ee e2"Db7" dd d2 |"B7" c2 E=D"Bb7" BA=ED || %18
w: late- ly I find You're|out of my arms and I'm|out of my mind. _ _ _|
w: |||
"Ebm" z2 B,/E/F/B/ G3"Cm7b5" B, | E3"Fm7b5" =D/E/ B"Bb7"A z2 |"Ebm7" z2 E/G/B/d/"Ab7" =c3 E | %21
w: Let our love take wing some|mid- night 'round mid- night.|Let the an- gels sing for|
w: |||
"Bm7" =A^F/=D/"E7" ^G2"Bbm7" _A=F/_D/"Eb7" =G2 | z2"Abm7" A/c/e/g/"Db7" f3 c | %23
w: your _ _ re- turn- * * ing.|Let our love be safe and|
w: ||
 B2"Ebm7" (3E=D_D C"Ab7" A2 E/F/ |"B7" ^F2 =F^D"Bb7" F2 E_D |"Ebm7" E8 |] %26
w: sound. _ _ _ _ _ When old|mid- * * night comes a-|round.|
w: |||

